logo/lbgt.svg

<svg clip-rule="evenodd" fill-rule="evenodd" stroke-linejoin="round" stroke-miterlimit="2" viewBox="0 0 1536 1536" xmlns="http://www.w3.org/2000/svg"><circle cx="767.9675" cy="768" fill="#00bfff" r="768.0075" stroke-width="48.75"/><path d="m22.543 18.869c.818 1.094.99 2.283.515 3.567-.476 1.284-1.419 2.126-2.83 2.527-.675.191-1.364.199-2.066.022-.702-.176-1.277-.51-1.726-1.001-1.628.727-3.157.691-4.588-.107-1.431-.799-2.291-2.096-2.58-3.892-.712-.174-1.318-.516-1.816-1.027-.498-.51-.858-1.154-1.079-1.931-.354-1.248-.072-2.416.846-3.505.917-1.089 1.982-1.563 3.193-1.42l2.129.258c.229-.75.624-1.421 1.186-2.011s1.226-1.016 1.991-1.278l-.453-1.595c-.075-.266-.051-.51.074-.734.124-.223.32-.372.586-.448.265-.075.51-.051.733.074s.373.32.448.586l.522 1.84c.821.011 1.545.186 2.172.528.627.341 1.237.892 1.828 1.652l1.78-.505c.266-.075.51-.051.733.074.223.124.373.32.448.585.076.266.051.511-.073.734-.125.223-.32.373-.586.448l-1.595.453c.179.789.176 1.574-.011 2.356-.187.783-.539 1.468-1.057 2.057zm-7.4 2.896c-.156-.552-.263-1.102-.319-1.65s-.061-1.093-.016-1.636c-.407.358-.868.66-1.384.906s-1.046.424-1.589.534c.226.798.635 1.361 1.226 1.691.591.329 1.285.381 2.082.155zm-3.698-4.387c.655-.186 1.209-.432 1.664-.738.455-.305 1.011-.817 1.67-1.534l-4.117-.489c-.663-.078-1.168.071-1.514.446-.347.374-.442.838-.285 1.39.151.532.435.871.852 1.018s.994.116 1.73-.093zm8.086 5.131c.512-.146.875-.442 1.09-.89.216-.448.187-.843-.087-1.185l-2.841-3.702c-.203.765-.319 1.505-.348 2.22s.032 1.339.183 1.871c.192.675.456 1.158.792 1.449.337.291.741.37 1.211.237zm.092-7.386c.147-.262.234-.58.261-.952.026-.372-.012-.743-.117-1.111-.186-.654-.557-1.145-1.114-1.473-.557-.329-1.153-.403-1.787-.223-.368.105-.698.265-.991.48-.292.216-.519.468-.68.757l2.706.425z" fill="#fff" fill-rule="nonzero" transform="matrix(48.75 0 0 48.75 -16.03 -12)"/></svg>

<?xml version="1.0" encoding="UTF-8" standalone="no"?>
<!DOCTYPE svg PUBLIC "-//W3C//DTD SVG 1.1//EN" "http://www.w3.org/Graphics/SVG/1.1/DTD/svg11.dtd">
<svg width="100%" height="100%" viewBox="0 0 1536 1536" version="1.1" xmlns="http://www.w3.org/2000/svg" xmlns:xlink="http://www.w3.org/1999/xlink" xml:space="preserve" xmlns:serif="http://www.serif.com/" style="fill-rule:evenodd;clip-rule:evenodd;stroke-linejoin:round;stroke-miterlimit:2;">
    <g transform="matrix(1,0,0,1,-3824.87,-1080.78)">
        <g transform="matrix(1,0,0,1,-9190.86,-2866)">
            <g transform="matrix(48.75,0,0,48.75,12999.7,3934.78)">
                <circle cx="16.082" cy="16" r="15.754" style="fill:rgb(0,191,255);"/>
            </g>
            <g transform="matrix(48.75,0,0,48.75,12999.7,3934.78)">
                <path d="M22.543,18.869C23.361,19.963 23.533,21.152 23.058,22.436C22.582,23.72 21.639,24.562 20.228,24.963C19.553,25.154 18.864,25.162 18.162,24.985C17.46,24.809 16.885,24.475 16.436,23.984C14.808,24.711 13.279,24.675 11.848,23.877C10.417,23.078 9.557,21.781 9.268,19.985C8.556,19.811 7.95,19.469 7.452,18.958C6.954,18.448 6.594,17.804 6.373,17.027C6.019,15.779 6.301,14.611 7.219,13.522C8.136,12.433 9.201,11.959 10.412,12.102L12.541,12.36C12.77,11.61 13.165,10.939 13.727,10.349C14.289,9.759 14.953,9.333 15.718,9.071L15.265,7.476C15.19,7.21 15.214,6.966 15.339,6.742C15.463,6.519 15.659,6.37 15.925,6.294C16.19,6.219 16.435,6.243 16.658,6.368C16.881,6.493 17.031,6.688 17.106,6.954L17.628,8.794C18.449,8.805 19.173,8.98 19.8,9.322C20.427,9.663 21.037,10.214 21.628,10.974L23.408,10.469C23.674,10.394 23.918,10.418 24.141,10.543C24.364,10.667 24.514,10.863 24.589,11.128C24.665,11.394 24.64,11.639 24.516,11.862C24.391,12.085 24.196,12.235 23.93,12.31L22.335,12.763C22.514,13.552 22.511,14.337 22.324,15.119C22.137,15.902 21.785,16.587 21.267,17.176L22.543,18.869ZM15.143,21.765C14.987,21.213 14.88,20.663 14.824,20.115C14.768,19.567 14.763,19.022 14.808,18.479C14.401,18.837 13.94,19.139 13.424,19.385C12.908,19.631 12.378,19.809 11.835,19.919C12.061,20.717 12.47,21.28 13.061,21.61C13.652,21.939 14.346,21.991 15.143,21.765ZM11.445,17.378C12.1,17.192 12.654,16.946 13.109,16.64C13.564,16.335 14.12,15.823 14.779,15.106L10.662,14.617C9.999,14.539 9.494,14.688 9.148,15.063C8.801,15.437 8.706,15.901 8.863,16.453C9.014,16.985 9.298,17.324 9.715,17.471C10.132,17.618 10.709,17.587 11.445,17.378ZM19.531,22.509C20.043,22.363 20.406,22.067 20.621,21.619C20.837,21.171 20.808,20.776 20.534,20.434L17.693,16.732C17.49,17.497 17.374,18.237 17.345,18.952C17.316,19.667 17.377,20.291 17.528,20.823C17.72,21.498 17.984,21.981 18.32,22.272C18.657,22.563 19.061,22.642 19.531,22.509ZM19.623,15.123C19.77,14.861 19.857,14.543 19.884,14.171C19.91,13.799 19.872,13.428 19.767,13.06C19.581,12.406 19.21,11.915 18.653,11.587C18.096,11.258 17.5,11.184 16.866,11.364C16.498,11.469 16.168,11.629 15.875,11.844C15.583,12.06 15.356,12.312 15.195,12.601L17.901,13.026L19.623,15.123Z" style="fill:white;fill-rule:nonzero;"/>
            </g>
        </g>
    </g>
</svg>
